src/assets/logos/STREET.svg

<svg width="56" height="56" viewBox="0 0 56 56" fill="none" xmlns="http://www.w3.org/2000/svg">
<rect width="56" height="56" fill="#333438"/>
<path d="M24.6664 23.9853C24.5567 23.8948 24.4526 23.8033 24.3541 23.7108C23.4105 22.8243 22.9387 21.7234 22.9387 20.4081C22.9387 18.8068 23.3747 17.5629 24.2469 16.6765C25.119 15.79 26.3486 15.3468 27.9356 15.3468C29.6799 15.3468 31.0167 15.8758 31.946 16.9338C32.8753 17.9918 33.34 19.4859 33.34 21.416H37.2861C37.2861 19.6718 36.9001 18.0705 36.128 16.6121C35.3559 15.1538 34.255 14.0171 32.8253 13.2022C31.3956 12.3729 29.7657 11.9583 27.9356 11.9583C25.262 11.9583 23.0959 12.759 21.4374 14.3603C19.7932 15.9616 18.9711 17.999 18.9711 20.4724C18.9711 21.7736 19.208 22.9446 19.6817 23.9853H16.3333V27.5539H32.249C31.2429 27.0215 30.0696 26.534 28.7291 26.0913C26.962 25.4638 25.6077 24.7618 24.6664 23.9853Z" fill="#FFC700"/>
<path d="M32.7534 33.0442C33.1445 33.7673 33.3401 34.6594 33.3401 35.7206C33.3401 37.2505 32.904 38.4586 32.0319 39.345C31.1597 40.2315 29.8587 40.6747 28.1287 40.6747C26.27 40.6747 24.7974 40.1385 23.7108 39.0662C22.6385 37.9939 22.1023 36.4927 22.1023 34.5625H18.1562C18.1562 36.4212 18.5923 38.0726 19.4645 39.5166C20.3509 40.9463 21.559 42.0615 23.0889 42.8622C24.633 43.6485 26.3129 44.0417 28.1287 44.0417C30.9596 44.0417 33.1971 43.284 34.8413 41.7684C36.4855 40.2386 37.3076 38.2084 37.3076 35.6777C37.3076 34.7284 37.2038 33.8506 36.9961 33.0442H39.6667V29.4755H26.8531C27.0657 29.556 27.2836 29.636 27.5068 29.7157C29.7086 30.5021 31.2312 31.3099 32.0748 32.1391C32.3439 32.4037 32.5701 32.7054 32.7534 33.0442Z" fill="#FFC700"/>
</svg>

<svg fill="none" height="56" width="56" xmlns="http://www.w3.org/2000/svg"><path d="M0 0h56v56H0z" fill="#333438"/><path d="M24.666 23.985a6.478 6.478 0 0 1-.312-.274c-.944-.887-1.415-1.988-1.415-3.303 0-1.601.436-2.845 1.308-3.732.872-.886 2.102-1.33 3.689-1.33 1.744 0 3.08.53 4.01 1.588s1.394 2.552 1.394 4.482h3.946c0-1.744-.386-3.346-1.158-4.804a8.338 8.338 0 0 0-3.303-3.41c-1.43-.83-3.06-1.244-4.89-1.244-2.673 0-4.84.801-6.498 2.402-1.644 1.602-2.466 3.639-2.466 6.112 0 1.302.237 2.473.71 3.513h-3.348v3.569H32.25c-1.006-.532-2.18-1.02-3.52-1.463-1.767-.627-3.121-1.33-4.063-2.106zm8.087 9.059c.391.723.587 1.615.587 2.677 0 1.53-.436 2.738-1.308 3.624-.872.886-2.173 1.33-3.903 1.33-1.859 0-3.332-.536-4.418-1.609-1.072-1.072-1.609-2.573-1.609-4.504h-3.946c0 1.86.436 3.51 1.309 4.955.886 1.43 2.094 2.544 3.624 3.345 1.544.786 3.224 1.18 5.04 1.18 2.83 0 5.068-.758 6.712-2.274 1.645-1.53 2.467-3.56 2.467-6.09 0-.95-.104-1.827-.312-2.634h2.67v-3.569H26.854c.213.081.43.161.654.24 2.202.787 3.724 1.595 4.568 2.424.269.265.495.566.678.905z" fill="#ffc700"/></svg>
